src/svg/th-menu-outline.svg

<svg version="1.2" baseProfile="tiny" xmlns="http://www.w3.org/2000/svg" width="24" height="24" viewBox="0 0 24 24"><path d="M19 18c.55 0 1 .45 1 1s-.45 1-1 1h-14c-.55 0-1-.45-1-1s.45-1 1-1h14m0-2h-14c-1.654 0-3 1.346-3 3s1.346 3 3 3h14c1.654 0 3-1.346 3-3s-1.346-3-3-3zM19 11c.55 0 1 .45 1 1s-.45 1-1 1h-14c-.55 0-1-.45-1-1s.45-1 1-1h14m0-2h-14c-1.654 0-3 1.346-3 3s1.346 3 3 3h14c1.654 0 3-1.346 3-3s-1.346-3-3-3zM19 4c.55 0 1 .45 1 1s-.45 1-1 1h-14c-.55 0-1-.45-1-1s.45-1 1-1h14m0-2h-14c-1.654 0-3 1.346-3 3s1.346 3 3 3h14c1.654 0 3-1.346 3-3s-1.346-3-3-3z"/></svg>

<?xml version="1.0" encoding="iso-8859-1"?>
<!-- Generator: Adobe Illustrator 16.2.1, SVG Export Plug-In . SVG Version: 6.00 Build 0)  -->
<svg version="1.2" baseProfile="tiny" id="Layer_1" xmlns="http://www.w3.org/2000/svg" xmlns:xlink="http://www.w3.org/1999/xlink"
	 x="0px" y="0px" width="24px" height="24px" viewBox="0 0 24 24" xml:space="preserve">
<g>
	<g>
		<path d="M19,18c0.55,0,1,0.45,1,1s-0.45,1-1,1H5c-0.55,0-1-0.45-1-1s0.45-1,1-1H19 M19,16H5c-1.654,0-3,1.346-3,3s1.346,3,3,3h14
			c1.654,0,3-1.346,3-3S20.654,16,19,16z"/>
	</g>
</g>
<g>
	<g>
		<path d="M19,11c0.55,0,1,0.45,1,1s-0.45,1-1,1H5c-0.55,0-1-0.45-1-1s0.45-1,1-1H19 M19,9H5c-1.654,0-3,1.346-3,3s1.346,3,3,3h14
			c1.654,0,3-1.346,3-3S20.654,9,19,9z"/>
	</g>
</g>
<g>
	<g>
		<path d="M19,4c0.55,0,1,0.45,1,1s-0.45,1-1,1H5C4.45,6,4,5.55,4,5s0.45-1,1-1H19 M19,2H5C3.346,2,2,3.346,2,5s1.346,3,3,3h14
			c1.654,0,3-1.346,3-3S20.654,2,19,2z"/>
	</g>
</g>
</svg>
